src/icons/home.svg

<svg width="18" height="21" viewBox="0 0 18 21" fill="none" xmlns="http://www.w3.org/2000/svg">
<path d="M16.7422 6.53125C17.4974 7.20833 17.875 8.06771 17.875 9.10938V17.2344C17.875 18.224 17.5365 19.0573 16.8594 19.7344C16.1823 20.4115 15.349 20.75 14.3594 20.75H3.89062C2.90104 20.75 2.06771 20.4115 1.39062 19.7344C0.713542 19.0573 0.375 18.224 0.375 17.2344V9.10938C0.375 8.09375 0.752604 7.23438 1.50781 6.53125L6.74219 1.6875C7.41927 1.0625 8.21354 0.75 9.125 0.75C10.0625 0.75 10.8568 1.0625 11.5078 1.6875L16.7422 6.53125ZM15.8828 9.10938C15.8828 8.69271 15.7266 8.32812 15.4141 8.01562L10.1406 3.13281C9.82812 2.8724 9.48958 2.74219 9.125 2.74219C8.76042 2.74219 8.42188 2.8724 8.10938 3.13281L2.875 8.01562C2.53646 8.30208 2.36719 8.66667 2.36719 9.10938V17.2344C2.36719 17.6771 2.51042 18.0417 2.79688 18.3281C3.08333 18.6146 3.44792 18.7578 3.89062 18.7578H5.375V12.9766C5.375 12.3516 5.59635 11.8177 6.03906 11.375C6.48177 10.9323 7.01562 10.7109 7.64062 10.7109H10.6484C11.2474 10.7109 11.7682 10.9323 12.2109 11.375C12.6536 11.8177 12.875 12.3516 12.875 12.9766V18.7578H14.3594C14.8021 18.7578 15.1667 18.6146 15.4531 18.3281C15.7396 18.0417 15.8828 17.6771 15.8828 17.2344V9.10938ZM10.8828 12.9766C10.8828 12.7943 10.8047 12.7031 10.6484 12.7031H7.64062C7.45833 12.7031 7.36719 12.7943 7.36719 12.9766V18.7578H10.8828V12.9766Z"/>
</svg>

<svg width="18" height="21"><path d="M16.742 6.531c.755.677 1.133 1.537 1.133 2.578v8.125c0 .99-.338 1.823-1.016 2.5-.677.677-1.51 1.016-2.5 1.016H3.891c-.99 0-1.823-.338-2.5-1.016-.677-.677-1.016-1.51-1.016-2.5V9.11c0-1.015.378-1.875 1.133-2.578l5.234-4.843A3.4 3.4 0 0 1 9.125.75c.938 0 1.732.313 2.383.938l5.234 4.843Zm-.86 2.578c0-.416-.155-.78-.468-1.093l-5.273-4.883c-.313-.26-.651-.39-1.016-.39s-.703.13-1.016.39L2.875 8.016a1.37 1.37 0 0 0-.508 1.093v8.125c0 .443.143.808.43 1.094.286.287.65.43 1.094.43h1.484v-5.781c0-.625.221-1.16.664-1.602a2.183 2.183 0 0 1 1.602-.664h3.007c.6 0 1.12.221 1.563.664.443.443.664.977.664 1.602v5.78h1.484c.443 0 .808-.142 1.094-.429.287-.286.43-.65.43-1.094V9.11Zm-5 3.868c0-.183-.077-.274-.234-.274H7.641c-.183 0-.274.091-.274.274v5.78h3.516v-5.78Z"/></svg>
